!!!COM: Schiørring, Niels
!!!CDT: 1743-1798
!!!OPR@@DA: Choral-Bog
!!!ONM: 86
!!!OTL@@DA: Dp! alle, ſom paa Jorden boer
**kern	**fb	**kern	**kern	**kern	**kern	**kern	**kern	**kern
*part6	*part6	*part6	*part5	*part5	*part4	*part3	*part2	*part1
*staff8	*	*staff7	*staff6	*staff5	*staff4	*staff3	*staff2	*staff1
*clefF4	*	*clefC1	*clefF4	*clefC1	*clefF4	*clefC4	*clefC3	*clefC1
*mclefF4	*	*mclefG2	*mclefF4	*mclefG2	*mclefF4	*mclefGv2	*mclefG2	*mclefG2
*k[b-]	*	*k[b-]	*k[b-]	*k[b-]	*k[b-]	*k[b-]	*k[b-]	*k[b-]
*F:	*	*F:	*F:	*F:	*F:	*F:	*F:	*F:
*M4/4	*	*M4/4	*M4/4	*M4/4	*M4/4	*M4/4	*M4/4	*M4/4
*met(c)	*	*met(c)	*met(c)	*met(c)	*met(c)	*met(c)	*met(c)	*met(c)
*MM180	*	*MM180	*MM180	*MM180	*MM180	*MM180	*MM180	*MM180
*	*	*	*^	*^	*	*	*	*
=1	=1	=1	=1	=1	=1	=1	=1	=1	=1	=1
2F	.	2f	2A	2F	2f	2c	2F	2A	2c	2f
=2	=2	=2	=2	=2	=2	=2	=2	=2	=2	=2
*	*	*	*	*	*	*^	*	*	*	*
2E	6	2cc	2G	2E	2cc	2g	2c\	2E	2G	2e	2cc
2C	7	2cc	2B-	2C	2cc	2g	2e\	2C	2B-	2e	2cc
=3	=3	=3	=3	=3	=3	=3	=3	=3	=3	=3	=3
2F	.	2cc	2A	2F	2cc	2f	1r	2F	2A	2f	2cc
2AA	6	2cc	2F	2AA	2cc	2f	.	2AA	2c	2f	2cc
=4	=4	=4	=4	=4	=4	=4	=4	=4	=4	=4	=4
2BB-	.	2dd	2B-	2BB-	2dd	2f	1r	2BB-	2B-	2f	2dd
2C	8	(4cc	2G	2C	4cc	2e	.	2C	2G	2e	(4cc
.	7	4b-)	.	.	4b-	.	.	.	.	.	4b-)
=5	=5	=5	=5	=5	=5	=5	=5	=5	=5	=5	=5
2F	.	2a	2A	2F	2a	2f	2c\	2F	2F	2f	2a
*	*	*	*	*	*	*v	*v	*	*	*	*
2C	.	2g	2c	2C	2g	2e	2C	2c	2e	2g
=6	=6	=6	=6	=6	=6	=6	=6	=6	=6	=6
2F	.	2a	1c	2F	2a	2f	2F	2c	2f	2a
2E	6	2cc	.	2E	2cc	2g	2E	2c	2g	2cc
=7	=7	=7	=7	=7	=7	=7	=7	=7	=7	=7
2D	7	2cc	1d	2D	2cc	1f	2D	2d	2f	2cc
2G	7 n	2bn	.	2G	2bn	.	2G	2d	2f	2bn
=8	=8	=8	=8	=8	=8	=8	=8	=8	=8	=8
*	*	*	*	*^	*	*	*	*	*	*
2C	.	2cc	2G	2C	2c/	2cc	2e	2C	2c	2e	2cc
*	*	*	*	*v	*v	*	*	*	*	*	*
2D	.	2a	2ryy	2D	2f	2f	2D	2f	2f	2a
=9	=9	=9	=9	=9	=9	=9	=9	=9	=9	=9
2C	.	2cc	1ryy	2C	2e	2g	2C	2e	2g	2cc
2BB-	2	2cc	.	2BB-	2e	2g	2BB-	2e	2g	2cc
=10	=10	=10	=10	=10	=10	=10	=10	=10	=10	=10
2AA	6	2cc	2ryy	2AA	2f	2f	2AA	2f	2f	2cc
2F	.	2a	2c	2F	2a	2f	2F	2c	2f	2a
=11	=11	=11	=11	=11	=11	=11	=11	=11	=11	=11
2E	6	2cc	1c	2E	2cc	2g	2E	2c	2g	2cc
2F	4	(4b-	.	2F	4b-	[2f	2F	2c	[2f	(4b-
.	3	4a)	.	.	4a	.	.	.	.	4a)
=12	=12	=12	=12	=12	=12	=12	=12	=12	=12	=12
2C	4	2g	2c	2C	2g	4f]	2C	2c	(4f]	2g
.	3	.	.	.	.	4e	.	.	4e)	.
2AA	6	2cc	2ryy	2AA	2c	2f	2AA	2c	2f	2cc
=13	=13	=13	=13	=13	=13	=13	=13	=13	=13	=13
2BB-	.	2b-	1ryy	2BB-	2d	2f	2BB-	2d	2f	2b-
2BBn	7 5	2a	.	2BBn	2d	[2f	2BBn	2d	[2f	2a
=14	=14	=14	=14	=14	=14	=14	=14	=14	=14	=14
2C	4	2g	2G	2C	2g	2f]	2C	2G	2f]	2g
2C#X	5	2g	2A	2C#X	2g	2e	2C#X	2A	2e	2g
=15	=15	=15	=15	=15	=15	=15	=15	=15	=15	=15
2D	.	(4f	2A	2D	4f	2d	(2D	(2A	(2d	(4f
.	.	4g	.	.	4g	.	.	.	.	4g
4Cni	6 -	4a	4ryy	4Cni	4cni	4e-X	4Cni	4c	4e-X	4a
4BB-	.	4b-	4ryy	4BB-	4d	4f	4BB-	4d	4f	4b-
=16	=16	=16	=16	=16	=16	=16	=16	=16	=16	=16
2AA	6	2cc)	2ryy	2AA	2c	2f	2AA)	2c)	2f)	2cc)
2F	.	2a	2c	2F	2a	2f	2F	2c	2f	2a
=17	=17	=17	=17	=17	=17	=17	=17	=17	=17	=17
2E	5	2b-	1c	2E	2b-	2g	2E	2c	2g	2b-
2F	.	2a	.	2F	2a	[2f	2F	2c	[2f	2a
=18	=18	=18	=18	=18	=18	=18	=18	=18	=18	=18
2BB-	6 5	2g	2ryy	2BB-	2d	2f]	2BB-	2d	2f]	2g
2C	.	2g	4c	2C	2g	2e	2C	(4c	2e	2g
.	.	.	4B-	.	.	.	.	4B-)	.	.
=19	=19	=19	=19	=19	=19	=19	=19	=19	=19	=19
*	*	*	*	*	*	*	*^	*	*	*
2FF	.	2f	2ryy	2FF	2A	2c	2F	2FF	2A	2f	2f
*	*	*	*v	*v	*	*	*v	*v	*	*	*
*	*	*	*	*v	*v	*	*	*	*
==	==	==	==	==	==	==	==	==
*-	*-	*-	*-	*-	*-	*-	*-	*-
!!!system-decoration: {(s1,s2,s3,s4)}{(s5,s6)}{(s7,s8)}
!!!RDF**kern: i = editorial accidental
!!!RDF**kern: > = above
!!!RDF**kern: < = below
!!!AGN: chorale
!!!EED: Derek Remeš
!!!EED2: Victor Phan
!!!END: 2023/11/28
!!!ENC: Wolfgang Drescher
!!!EEV: 2023/12/08
!!!title: @{ONM}. @{OTL}
!!!verovio: mnumInterval 1